X:1
T:Fugge da glocchi
T:Ruggiero Giovanelli
T:Source : Canzonette a la Romana a tre voce---Venetia---Ang.Gardano---1601. Editor : André Vierendeels (23/01/17).
T:Notes : Original clefs : C1, C2, F4 This edition retains the frequent parallel fifths from the original print.
T:Fugge da glocchi
T:©
T:©
T:©
T:©
C:Ruggiero Giovanelli
Z:©
%%score [ 1 2 3 ]
L:1/8
Q:1/4=101
M:4/4
K:C
V:1 treble nm="Soprano 1" snm="S 1"
V:2 treble nm="Soprano 2" snm="S 2"
V:3 bass nm="Bass" snm="B"
V:1
"^1)" z4 e4- | e2 dc B2 c2 | d4 d2 d2 | d2 d2 c2 B2 | A4 A2 c2 | c2 c2 B2 B2 | A4 A2 A2- | %7
w: Fug-|* ge da gl'oc- ch'il|son- no, ohi-|me per- che non|pon- no re-|si- ster con- tr'il|pian- to'e i|
w: Cor-|* re ve- lo- ce'A-|mo- re, o-|gni mo- men- to'al|co- re, e|con nuo- vo sa-|et- t'e nuo-|
 A2 B4 c2 | d8- | d4 c4 | B8 |[M:2/4] A4 :|[M:4/4] z2 E2 F2 E2 | A6 F2 | E8- | E4 D4 | z4 A4 | %17
w: _ gior- ni|re-|||i,|gli'af- flit- ti|spir- ti|mie-|i, _|gli'af-|
w: * vi in-|gan-|||ni,|cre- sce'a quest'|al- m'af-|fan-|ni, _|cre-|
 c2 d2 e4- | e2 c2 B4- | B4 A4 | z2 E2 F2 E2 | A6 F2 | E8- | E4 D4 | z4 A4 | c2 d2 e4- | %26
w: flit- ti spir-|* ti mie-|i, _|gli'af- flit- ti|spir ti|mie-|i, _|gli'af-|flit- ti spir-|
w: sce'a quest' al-|* m'af- fan-|ni, _|cre- sce'a quest'|al- m'af-|fan-|ni, _|cre-|sce'a quest' al-|
 e2 c2 B4- | B4 A4 |] %28
w: * ti mie-|i. _|
w: * m'af- fan-|ni. _|
V:2
"^2)""^1)" c6 BA | G2 A2 B4 | B4 z2 B2 | B2 B2 A2 G2 | F4 F2 A2 | A2 A2 G2 G2 | ^F4 F4 | ^F4 G4 | %8
w: Fug- ge da|gl'oc- ch'il son-|no, ohi-|me per- che non|pon- no re-|si- ster con- tr'il|pian- to'e|i gior-|
w: Spes- so sde-|gno fe- ro-|ce, mi|par- l'ad al- tra|vo- ce, mi-|se- ro'a- man- te|che pian-|gen- do|
 A4 B2 A2 | G4 A4- | A4 ^G4 |[M:2/4] A4 :|[M:4/4] E4 F2 E2 | A6 F2 | E2 D4 ^CB, | ^C4 D2 D2 | %16
w: ni re- *|||i,|gli'af- flit- ti|spir- ti|mie- * * *|* i, gli'af-|
w: va- * *|||i,|quan- do ti|pen- ti-|ra- * * *|* i, quan-|
 F2 G2 A4 | G2 F2 E4- | E2 F2 ^G2 A2- | A2 ^G2 A4 | E4 F2 E2 | A6 F2 | E2 D4 ^CB, | ^C4 D2 D2 | %24
w: flit- ti spir-|ti mie- *||* * i,|gli'af- flit- ti|spir- ti|mie- * * *|* i, gli'af-|
w: do ti pen-|ti- ra- *||* * i,|quan- do ti|pen- ti-|ra- * * *|* i, quan-|
 F2 G2 A4 | G2 F2 E4- | E2 F2 ^G2 A2- | A2 ^G2 A4 |] %28
w: flit- ti spir-|ti mie- *||* * i.|
w: do ti pen-|ti- ra- *||* * i|
V:3
"^3)""^1)""^4)" A,6 G,F, | E,2 F,2 G,4 | G,4 z2 G,2 | G,2 G,2 E,2 E,2 | D,4 D,2 F,2 | %5
w: Fug- ge da|gli'oc- ch'il son-|no, ohi-|me per- che non|pon- no re-|
w: Io li ri-|spon- do'e di-|co, che|quan- do'A- mor ne-|mi- co, en-|
 F,2 F,2 E,2 E,2 | D,4 D,4 | D,4 E,4 | F,4 G,2 F,2 | E,8- | E,8 |[M:2/4] A,,4 :|[M:4/4] A,4 A,4 | %13
w: si- ster con- tra'il|pian- to'e|i gior-|ni re- *|||i,|glii'af- flit-|
w: tra nel pet- to|d'un' in-|na- mo-|ta- * *|||to,-|vie- n'in-|
 A,4 A,4 | A,4 A,4- | A,4 D,4 | D,4 F,4 | G,4 A,4- | A,2 A,,2 E,4- | E,4 A,,4- | A,,8- | A,,8- | %22
w: ti spir-|ti mie-|* i,|gli'af- flit-|ti spir-|* ti mie-|* i.|_||
w: mi- se-|ro sta-|* to,|vie- n'in|mi- se-|* ro sta-|* to.|_||
 A,,8- | A,,8- | A,,8- | A,,8- | A,,8- | A,,8 |] %28
w: ||||||
w: ||||||

